X:4073
T:Maturin-Maturine (bal)
O:england
C:Traditionnel
D:Orgue et Bombarde
P:F5
M:12/8
K:C
P:F
Q:C3=60
|: "Am"ABc "F"HA2 c "G"HB2 G "Am"HA3|ABc "C"Hece "Dm"Hd2 c "Em"HB3 :|
Q:C3=156
"Em"Bcd "C"e2 c e2 c "F"A3 | AGA "G"B2 e edc "Em"B3 |\
Bcd "C"e2 c e2 c "F"A3 | AGA "G"Bdc "F"A2 "G"G "Am"A3 ||


